X:21
M:C
L:1/8
Q:1/4=140
K:A
E<C C>E A,EC<F|E<C C>E F>E C<F|E<C C>E A,>EC>c|A<F E>C (B,2 B,)||
f|e<c a>c b>ca>f|e<ca>g f>e c<f|e<c a>c b>ca>g|b/a/g/f/ a>c B2 Bf|
e<c a>c b>ca>f|e<c a>g f>e c<f|e>cd>B c>A B<G|A<F E>C (B,2 B,)||

